material/.icons/material/arrow-top-left-bold-outline.svg

<svg xmlns="http://www.w3.org/2000/svg" viewBox="0 0 24 24"><path d="M14.12 8.46l5.66 5.66-5.66 5.66-5.66-5.66-4.24 4.24V4.22h14.14l-4.24 4.24m-7.78 4.95l2.12-2.12 5.66 5.66 2.83-2.83-5.66-5.65 2.12-2.13H6.34v7.07z"/></svg>

<?xml version="1.0" encoding="UTF-8"?><!DOCTYPE svg PUBLIC "-//W3C//DTD SVG 1.1//EN" "http://www.w3.org/Graphics/SVG/1.1/DTD/svg11.dtd"><svg xmlns="http://www.w3.org/2000/svg" xmlns:xlink="http://www.w3.org/1999/xlink" version="1.1" id="mdi-arrow-top-left-bold-outline" width="24" height="24" viewBox="0 0 24 24"><path d="M14.12,8.46L19.78,14.12L14.12,19.78L8.46,14.12L4.22,18.36V4.22H18.36L14.12,8.46M6.34,13.41L8.46,11.29L14.12,16.95L16.95,14.12L11.29,8.47L13.41,6.34H6.34V13.41Z" /></svg>
